packages/dnb-ui-lib/assets/icons/funds.svg

<svg width="16" height="16" viewBox="0 0 16 16" fill="none" xmlns="http://www.w3.org/2000/svg">
<path d="M15.25 15H14.25M0.75 15H1.75M1.75 15V10.9667C1.75 10.7089 1.95893 10.5 2.21667 10.5H3.78333C4.04107 10.5 4.25 10.7089 4.25 10.9667V15M1.75 15H4.25M4.25 15H6.75M6.75 15V7.47778C6.75 7.22004 6.95893 7.01111 7.21667 7.01111L8.75 7C9.00773 7 9.21667 7.20893 9.21667 7.46667V15M6.75 15H9.21667M9.21667 15H11.75M11.75 15V8.00187C11.75 7.74413 11.9589 7.5352 12.2167 7.5352H13.7833C14.0411 7.5352 14.25 7.74413 14.25 8.00187V15M11.75 15H14.25M15 3.8V1M15 1H12.2M15 1L11.8578 4.14222C11.6791 4.32096 11.4553 4.44797 11.2102 4.50976C10.9652 4.57155 10.7079 4.56581 10.4659 4.49316L6.9136 3.54364C6.6763 3.48031 6.42653 3.48049 6.18932 3.54416C5.95211 3.60783 5.73582 3.73275 5.56213 3.9064L1.93333 7.5352" stroke="black" stroke-width="1.5" stroke-linecap="round" stroke-linejoin="round"/>
</svg>

<svg width="16" height="16" viewBox="0 0 16 16" fill="none" xmlns="http://www.w3.org/2000/svg"><path d="M15.25 15h-1M.75 15h1m0 0v-4.033c0-.258.209-.467.467-.467h1.566c.258 0 .467.209.467.467V15m-2.5 0h2.5m0 0h2.5m0 0V7.478c0-.258.209-.467.467-.467L8.75 7c.258 0 .467.209.467.467V15M6.75 15h2.467m0 0h2.533m0 0V8.002c0-.258.209-.467.467-.467h1.566c.258 0 .467.21.467.467V15m-2.5 0h2.5M15 3.8V1m0 0h-2.8M15 1l-3.142 3.142a1.4 1.4 0 01-1.392.351l-3.552-.95a1.4 1.4 0 00-1.352.363l-3.629 3.63" stroke="#000" stroke-width="1.5" stroke-linecap="round" stroke-linejoin="round"/></svg>
